svg/color/eyes.svg

<?xml version="1.0" encoding="UTF-8" ?>
<!DOCTYPE svg PUBLIC "-//W3C//DTD SVG 1.1//EN" "http://www.w3.org/Graphics/SVG/1.1/DTD/svg11.dtd">
<svg width="250pt" height="186pt" viewBox="0 0 250 186" version="1.1" xmlns="http://www.w3.org/2000/svg">
<g id="#fefefeff">
<path fill="#fefefe" opacity="1.00" d=" M 0.00 0.00 L 250.00 0.00 L 250.00 186.00 L 0.00 186.00 L 0.00 0.00 M 85.81 17.07 C 90.13 17.51 94.50 17.33 98.80 17.98 C 114.14 20.90 129.21 26.70 141.62 36.32 C 159.63 49.14 174.77 65.83 186.52 84.51 C 187.01 84.54 187.99 84.59 188.48 84.61 C 194.60 71.62 198.04 56.41 193.30 42.42 C 191.07 34.96 185.10 29.54 179.20 24.87 C 169.93 18.06 159.68 12.24 148.44 9.48 C 127.60 3.90 104.86 7.21 85.81 17.07 M 74.14 26.25 C 69.85 27.90 66.67 31.33 63.49 34.50 C 45.31 52.99 26.41 70.77 8.02 89.05 C 5.79 90.99 9.09 93.20 10.35 94.65 C 20.66 104.67 30.59 115.08 40.86 125.13 C 44.79 128.84 48.12 133.16 52.45 136.43 C 52.62 130.71 51.99 124.89 53.24 119.25 C 55.84 99.79 65.79 82.10 78.20 67.20 C 90.26 53.46 104.14 41.33 119.55 31.49 C 119.59 31.09 119.65 30.30 119.68 29.90 C 114.56 28.24 109.65 25.83 104.25 25.15 C 104.77 25.01 105.29 24.87 105.81 24.74 C 95.37 23.33 84.05 21.58 74.14 26.25 M 199.74 45.09 C 199.71 51.40 199.85 57.73 199.51 64.03 C 198.72 73.94 194.37 82.99 191.13 92.23 C 177.79 117.18 156.55 136.94 133.06 152.26 C 139.64 156.42 147.41 158.24 154.98 159.59 C 162.53 159.73 170.50 160.79 177.61 157.59 C 181.49 156.16 184.79 153.58 187.61 150.60 C 199.50 138.50 212.23 127.24 223.94 114.95 C 231.86 108.96 238.27 101.24 245.47 94.43 C 247.87 92.66 245.46 90.38 243.99 89.01 C 229.21 74.41 214.83 59.37 199.74 45.09 M 58.28 128.99 C 57.98 137.02 60.57 145.17 65.52 151.49 C 80.63 167.34 102.18 176.48 123.97 177.44 C 132.39 177.76 140.72 176.08 148.86 174.13 C 154.71 172.49 160.83 170.94 165.67 167.06 C 149.73 166.63 134.07 161.88 120.47 153.57 C 97.71 140.86 80.96 120.18 65.84 99.44 C 60.54 108.27 57.89 118.70 58.28 128.99 Z" />
</g>
<g id="#59749bff">
<path fill="#59749b" opacity="1.00" d=" M 85.81 17.07 C 104.86 7.21 127.60 3.90 148.44 9.48 C 159.68 12.24 169.93 18.06 179.20 24.87 C 185.10 29.54 191.07 34.96 193.30 42.42 C 198.04 56.41 194.60 71.62 188.48 84.61 C 187.99 84.59 187.01 84.54 186.52 84.51 C 174.77 65.83 159.63 49.14 141.62 36.32 C 129.21 26.70 114.14 20.90 98.80 17.98 C 94.50 17.33 90.13 17.51 85.81 17.07 Z" />
<path fill="#59749b" opacity="1.00" d=" M 199.74 45.09 C 214.83 59.37 229.21 74.41 243.99 89.01 C 245.46 90.38 247.87 92.66 245.47 94.43 C 238.27 101.24 231.86 108.96 223.94 114.95 C 230.54 106.90 238.51 100.14 245.71 92.65 C 237.67 83.92 228.96 75.83 220.66 67.34 C 214.50 61.33 208.79 54.85 202.11 49.39 C 201.44 64.14 199.17 79.53 191.13 92.23 C 194.37 82.99 198.72 73.94 199.51 64.03 C 199.85 57.73 199.71 51.40 199.74 45.09 Z" />
<path fill="#59749b" opacity="1.00" d=" M 58.28 128.99 C 57.89 118.70 60.54 108.27 65.84 99.44 C 80.96 120.18 97.71 140.86 120.47 153.57 C 134.07 161.88 149.73 166.63 165.67 167.06 C 160.83 170.94 154.71 172.49 148.86 174.13 C 140.72 176.08 132.39 177.76 123.97 177.44 C 102.18 176.48 80.63 167.34 65.52 151.49 C 60.57 145.17 57.98 137.02 58.28 128.99 Z" />
</g>
<g id="#1c3760ff">
<path fill="#1c3760" opacity="1.00" d=" M 74.14 26.25 C 84.05 21.58 95.37 23.33 105.81 24.74 C 105.29 24.87 104.77 25.01 104.25 25.15 C 109.65 25.83 114.56 28.24 119.68 29.90 C 119.65 30.30 119.59 31.09 119.55 31.49 C 104.14 41.33 90.26 53.46 78.20 67.20 C 65.79 82.10 55.84 99.79 53.24 119.25 C 51.99 124.89 52.62 130.71 52.45 136.43 C 48.12 133.16 44.79 128.84 40.86 125.13 C 30.59 115.08 20.66 104.67 10.35 94.65 C 9.09 93.20 5.79 90.99 8.02 89.05 C 26.41 70.77 45.31 52.99 63.49 34.50 C 66.67 31.33 69.85 27.90 74.14 26.25 Z" />
<path fill="#1c3760" opacity="1.00" d=" M 202.11 49.39 C 208.79 54.85 214.50 61.33 220.66 67.34 C 228.96 75.83 237.67 83.92 245.71 92.65 C 238.51 100.14 230.54 106.90 223.94 114.95 C 212.23 127.24 199.50 138.50 187.61 150.60 C 184.79 153.58 181.49 156.16 177.61 157.59 C 170.50 160.79 162.53 159.73 154.98 159.59 C 147.41 158.24 139.64 156.42 133.06 152.26 C 156.55 136.94 177.79 117.18 191.13 92.23 C 199.17 79.53 201.44 64.14 202.11 49.39 Z" />
</g>
</svg>

<?xml version="1.0" encoding="utf-8"?>
<!-- Generator: Adobe Illustrator 26.0.3, SVG Export Plug-In . SVG Version: 6.00 Build 0)  -->
<svg version="1.1" id="Layer_1" xmlns="http://www.w3.org/2000/svg" xmlns:xlink="http://www.w3.org/1999/xlink" x="0px" y="0px"
	 viewBox="0 0 250 186" style="enable-background:new 0 0 250 186;" xml:space="preserve">
<style type="text/css">
	.st0{fill:#59749B;}
	.st1{fill:#1C3760;}
</style>
<g id="_x23_59749bff">
	<path class="st0" d="M85.8,17.1c19.1-9.9,41.8-13.2,62.6-7.6c11.2,2.8,21.5,8.6,30.8,15.4c5.9,4.7,11.9,10.1,14.1,17.5
		c4.7,14,1.3,29.2-4.8,42.2c-0.5,0-1.5-0.1-2-0.1c-11.8-18.7-26.9-35.4-44.9-48.2c-12.4-9.6-27.5-15.4-42.8-18.3
		C94.5,17.3,90.1,17.5,85.8,17.1z"/>
	<path class="st0" d="M199.7,45.1C214.8,59.4,229.2,74.4,244,89c1.5,1.4,3.9,3.7,1.5,5.4c-7.2,6.8-13.6,14.5-21.5,20.5
		c6.6-8,14.6-14.8,21.8-22.3c-8-8.7-16.8-16.8-25.1-25.3c-6.2-6-11.9-12.5-18.6-17.9c-0.7,14.8-2.9,30.1-11,42.8
		c3.2-9.2,7.6-18.3,8.4-28.2C199.9,57.7,199.7,51.4,199.7,45.1z"/>
	<path class="st0" d="M58.3,129c-0.4-10.3,2.3-20.7,7.6-29.6c15.1,20.7,31.9,41.4,54.6,54.1c13.6,8.3,29.3,13.1,45.2,13.5
		c-4.8,3.9-11,5.4-16.8,7.1c-8.1,1.9-16.5,3.6-24.9,3.3c-21.8-1-43.3-10.1-58.5-25.9C60.6,145.2,58,137,58.3,129z"/>
</g>
<g id="_x23_1c3760ff">
	<path class="st1" d="M74.1,26.2c9.9-4.7,21.2-2.9,31.7-1.5c-0.5,0.1-1,0.3-1.6,0.4c5.4,0.7,10.3,3.1,15.4,4.8
		c0,0.4-0.1,1.2-0.1,1.6c-15.4,9.8-29.3,22-41.4,35.7c-12.4,14.9-22.4,32.6-25,52.1c-1.2,5.6-0.6,11.5-0.8,17.2
		c-4.3-3.3-7.7-7.6-11.6-11.3c-10.3-10-20.2-20.5-30.5-30.5C9.1,93.2,5.8,91,8,89.1C26.4,70.8,45.3,53,63.5,34.5
		C66.7,31.3,69.8,27.9,74.1,26.2z"/>
	<path class="st1" d="M202.1,49.4c6.7,5.5,12.4,11.9,18.6,17.9c8.3,8.5,17,16.6,25.1,25.3c-7.2,7.5-15.2,14.2-21.8,22.3
		c-11.7,12.3-24.4,23.6-36.3,35.7c-2.8,3-6.1,5.6-10,7c-7.1,3.2-15.1,2.1-22.6,2c-7.6-1.3-15.3-3.2-21.9-7.3
		c23.5-15.3,44.7-35.1,58.1-60C199.2,79.5,201.4,64.1,202.1,49.4z"/>
</g>
</svg>
